imagens/Elementos/tiktok1.svg

<svg width="80" height="80" viewBox="0 0 80 80" fill="none" xmlns="http://www.w3.org/2000/svg">
<path d="M70.0375 17.1091C69.4145 16.8301 68.8081 16.5242 68.2204 16.1925C66.5114 15.2133 64.9446 14.0595 63.5536 12.756C60.0731 9.30454 58.7733 5.80304 58.2945 3.3515H58.3137C57.9137 1.3166 58.0791 0 58.1041 0H42.2518V53.1273C42.2518 53.8406 42.2518 54.5456 42.2172 55.2422C42.2172 55.3289 42.2076 55.4089 42.2018 55.5022C42.2018 55.5406 42.2018 55.5806 42.1922 55.6206V55.6506C42.0251 57.5568 41.3201 59.3982 40.1392 61.0128C38.9582 62.6274 37.3376 63.9657 35.4198 64.9101C33.421 65.8956 31.1604 66.4126 28.8608 66.41C21.475 66.41 15.4891 61.1903 15.4891 54.7439C15.4891 48.2976 21.475 43.0779 28.8608 43.0779C30.2589 43.0767 31.6484 43.2674 32.9777 43.6428L32.997 29.6535C28.9615 29.2017 24.8618 29.4797 20.9566 30.4699C17.0513 31.4601 13.4251 33.141 10.3069 35.4066C7.57459 37.4641 5.27754 39.9192 3.5191 42.6612C2.84993 43.6612 0.325183 47.6793 0.019444 54.2006C-0.172845 57.9021 1.10972 61.7369 1.7212 63.3218V63.3552C2.10578 64.2885 3.59601 67.4733 6.02462 70.1582C7.98296 72.3118 10.2967 74.2037 12.8912 75.7729V75.7395L12.9297 75.7729C20.6039 80.2927 29.1127 79.996 29.1127 79.996C30.5857 79.9443 35.5198 79.996 41.1231 77.6945C47.3378 75.1429 50.876 71.3414 50.876 71.3414C53.1363 69.07 54.9336 66.4814 56.1908 63.6868C57.6253 60.4187 58.1041 56.4988 58.1041 54.9323V26.747C58.2964 26.847 60.8577 28.3153 60.8577 28.3153C60.8577 28.3153 64.5477 30.3652 70.3048 31.7001C74.4352 32.65 80 32.85 80 32.85V19.2107C78.0502 19.394 74.091 18.8607 70.0375 17.1091Z" fill="#D32E5E"/>
</svg>

<svg width="80" height="80" fill="none" xmlns="http://www.w3.org/2000/svg"><path d="M70.037 17.11a21.944 21.944 0 0 1-1.817-.918 24.98 24.98 0 0 1-4.666-3.436c-3.48-3.451-4.78-6.953-5.26-9.405h.02c-.4-2.034-.235-3.351-.21-3.351H42.252v53.127c0 .714 0 1.419-.035 2.115 0 .087-.01.167-.015.26 0 .039 0 .079-.01.119v.03c-.167 1.906-.872 3.747-2.053 5.362-1.18 1.614-2.801 2.953-4.72 3.897-1.998.986-4.259 1.503-6.558 1.5-7.386 0-13.372-5.22-13.372-11.666 0-6.446 5.986-11.666 13.372-11.666 1.398-.001 2.787.19 4.117.565l.019-13.99a33.809 33.809 0 0 0-12.04.817c-3.906.99-7.532 2.671-10.65 4.937-2.732 2.057-5.03 4.512-6.788 7.254-.67 1-3.194 5.018-3.5 11.54-.192 3.701 1.09 7.536 1.702 9.12v.034c.385.934 1.875 4.118 4.304 6.803a30.826 30.826 0 0 0 6.866 5.615v-.033l.039.033c7.674 4.52 16.183 4.223 16.183 4.223 1.473-.052 6.407 0 12.01-2.301 6.215-2.552 9.753-6.354 9.753-6.354 2.26-2.271 4.058-4.86 5.315-7.654 1.434-3.268 1.913-7.188 1.913-8.755V26.747c.192.1 2.754 1.568 2.754 1.568s3.69 2.05 9.447 3.385c4.13.95 9.695 1.15 9.695 1.15V19.21c-1.95.184-5.909-.35-9.963-2.1Z" fill="#D32E5E"/></svg>
